assets/img/achieves/graphic/metasequoia.svg

<?xml version="1.0" standalone="no"?>
<!-- Generator: Adobe Fireworks 10, Export SVG Extension by Aaron Beall (http://fireworks.abeall.com) . Version: 0.6.1  -->
<!DOCTYPE svg PUBLIC "-//W3C//DTD SVG 1.1//EN" "http://www.w3.org/Graphics/SVG/1.1/DTD/svg11.dtd">
<svg id="Untitled-%u30DA%u30FC%u30B8%201" viewBox="0 0 300 300" style="background-color:#ffffff00" version="1.1"
	xmlns="http://www.w3.org/2000/svg" xmlns:xlink="http://www.w3.org/1999/xlink" xml:space="preserve"
	x="0px" y="0px" width="300px" height="300px"
>
	<g>
		<path id="%u6955%u5186%u5F62" d="M 0 150 C 0 67.1562 67.1562 0 150 0 C 232.8438 0 300 67.1562 300 150 C 300 232.8438 232.8438 300 150 300 C 67.1562 300 0 232.8438 0 150 Z" stroke="#ffffff00" stroke-width="1" fill="#7dc640"/>
		<path d="M 101 26 C 101 26 96.25 30.5 62 66 C 27.75 101.5 25 107 25 107 C 25 107 26 125.5 32 167 C 38 208.5 41 217 41 217 C 41 217 43.75 220.75 85 245 C 126.25 269.25 137 274 137 274 C 137 274 148.5 270.25 191 255 C 233.5 239.75 242 234 242 234 C 242 234 246.75 225 260 182 C 273.25 139 275 128 275 128 C 275 128 269.5 115 244 78 C 218.5 41 212 35 212 35 C 212 35 209.5 32.75 159 29 C 108.5 25.25 101 26 101 26 Z" stroke="#ffffff00" stroke-width="1" fill="#4d4d4d"/>
		<path d="M 117 78 C 117 78 115.25 79.75 102 113 C 88.75 146.25 87 156 87 156 C 87 156 95 167.75 114 192 C 133 216.25 138 220 138 220 C 138 220 147.75 219.5 181 215 C 214.25 210.5 220 209 220 209 C 220 209 223.75 203.5 236 174 C 248.25 144.5 252 131 252 131 C 252 131 246 121.25 227 97 C 208 72.75 201 66 201 66 C 201 66 190.75 65 158 70 C 125.25 75 117 78 117 78 Z" stroke="#ffffff00" stroke-width="1" fill="#7dc640"/>
		<path d="M 130 86 L 120 151 L 179 182 L 227 135 L 197 76 L 130 86 Z" stroke="#ffffff00" stroke-width="1" fill="#fffeff"/>
	</g>
</svg>

<svg xmlns="http://www.w3.org/2000/svg" viewBox="0 0 300 300" style="background-color:#ffffff00">
  <g stroke="#ffffff00">
    <path fill="#7dc640" d="M0 150C0 67.2 67.2 0 150 0s150 67.2 150 150-67.2 150-150 150S0 232.8 0 150z"/>
    <path fill="#4d4d4d" d="M101 26s-4.8 4.5-39 40c-34.3 35.5-37 41-37 41s1 18.5 7 60 9 50 9 50 2.8 3.8 44 28c41.3 24.3 52 29 52 29s11.5-3.8 54-19c42.5-15.3 51-21 51-21s4.8-9 18-52c13.3-43 15-54 15-54s-5.5-13-31-50-32-43-32-43-2.5-2.3-53-6c-50.5-3.8-58-3-58-3z"/>
    <path fill="#7dc640" d="M117 78s-1.8 1.8-15 35c-13.3 33.3-15 43-15 43s8 11.8 27 36c19 24.3 24 28 24 28s9.8-.5 43-5c33.3-4.5 39-6 39-6s3.8-5.5 16-35c12.3-29.5 16-43 16-43s-6-9.8-25-34c-19-24.3-26-31-26-31s-10.3-1-43 4c-32.8 5-41 8-41 8z"/>
    <path fill="#fffeff" d="M130 86l-10 65 59 31 48-47-30-59-67 10z"/>
  </g>
</svg>
